X:1
T:Mersin, 11.11.11.11
T:Mersin, 11.11.11.11
T:James H. Burke, 1891
T:Public Domain Courtesy of the Cyber Hymnal™
C:James H. Burke, 1891
Z:Public Domain
Z:Courtesy of the Cyber Hymnal™
%%score ( 1 2 ) ( 3 4 )
L:1/8
Q:1/4=103
M:6/8
K:D
V:1 treble 
V:2 treble 
V:3 bass 
V:4 bass 
V:1
 [FA]2 [FA] ([DF][EG])[FA] | [Fd]3 ([FA]2 [EG]) | [DF]2 [DF] (AG)[DF] | (E3 A3) | %4
 [DA]2 [DA] ([DF][EG])[FA] | [Fd]3 ([FA]2 [DG]) | [DF]2 [DF] [CG]2 [CE] | D6 | %8
 [DB]2 [DB] (Bc)[Dd] | [Dd]3 [Ec]3 | [^GB]2 [GB] [Gc]2 [GB] | z3 x6 | [FA]2 [FA] ([DF][EG])[FA] | %13
 [Fd]3 ([FA]2 [DG]) | [DF]2 [DF] [CG]2 [CE] | D6 |] %16
V:2
 x6 | x6 | x3 D2 x | C6 | x6 | x6 | x6 | D6 | x3 D2 x | x6 | x6 | A6 G3 | x6 | x6 | x6 | D6 |] %16
V:3
 [D,A,]2 [D,A,] [D,A,]2 [D,D] | [D,D]3 [D,D]3 | [D,A,]2 [D,A,] A,2 [D,A,] | (A,3 G,3) | %4
 [D,F,]2 [D,F,] [D,A,]2 [D,A,] | [D,A,]3 ([D,=C]2 [G,B,]) | A,2 A, [A,,A,]2 [A,,G,] | [D,F,]6 | %8
 G,2 G, (G,A,)[G,B,] | [F,A,]3 A,3 | [E,D]2 [E,D] [E,E]2 [E,D] | [A,C]6 x3 | %12
 [D,D]2 [D,D] [D,A,]2 [D,A,] | [D,A,]3 ([D,=C]2 [G,B,]) | A,2 A, [A,,A,]2 [A,,G,] | [D,F,]6 |] %16
V:4
 x6 | x6 | x3 (F,E,) x | A,,6 | x6 | x6 | A,2 A, x3 | x6 | G,2 G, G,2 x | x3 A,3 | x6 | x9 | x6 | %13
 x6 | A,2 A, x3 | x6 |] %16

